;FLAVOR:Marlin
;TIME:2982
;Filament used: 3.10469m
;Layer height: 0.28
;MINX:81.95
;MINY:55.45
;MINZ:0.38
;MAXX:153.05
;MAXY:179.55
;MAXZ:1.5
;Generated with Cura_SteamEngine master
M82 ;absolute extrusion mode
; Ender 3 Custom Start G-code
G92 E0 ; Reset Extruder
;*** Start Preheating ***
M140 S55.0 ; start preheating the bed
M104 S220 ﻿T0 ; start preheating hotend
G28 ; Home all axes
M190 S55.0 ; wait until heat to Cura Bed setting
M109 S220 ﻿T0 ; wait untill heat to Cura Hotend
;*** End Preheating ***
;*** Single Start Tone
M300 S1000 P500 ; chirp to indicate starting to print
;*** End Single Start Tone
G1 Z2.0 F3000 ; Move Z Axis up little to prevent scratching of Heat Bed
G1 X0.1 Y20 Z0.3 F5000.0 ; Move to start position
G1 X0.1 Y200.0 Z0.3 F1500.0 E15 ; Draw the first line
G1 X0.4 Y200.0 Z0.3 F5000.0 ; Move to side a little
G1 X0.4 Y20 Z0.3 F1500.0 E30 ; Draw the second line
G92 E0 ; Reset Extruder
G1 Z2.0 F3000 ; Move Z Axis up little to prevent scratching of Heat Bed
G1 X5 Y20 Z0.3 F5000.0 ; Move over to prevent blob squish
G92 E0
G92 E0
G1 F1500 E-6
;LAYER_COUNT:5
;LAYER:0
M107
G0 F6000 X83.347 Y58.796 Z0.38
;TYPE:SKIRT
G1 F1500 E0
G1 F1200 X83.83 Y58.172 E0.04987
G1 X84.373 Y57.599 E0.09975
G1 X84.972 Y57.084 E0.14967
G1 X85.62 Y56.633 E0.19956
G1 X86.311 Y56.249 E0.24952
G1 X87.036 Y55.937 E0.2994
G1 X87.789 Y55.7 E0.34929
G1 X88.563 Y55.541 E0.39922
G1 X89.348 Y55.46 E0.44909
G1 X89.75 Y55.45 E0.4745
G1 X145.25 Y55.45 E3.98178
G1 X146.039 Y55.49 E4.03171
G1 X146.819 Y55.609 E4.08157
G1 X147.584 Y55.807 E4.13151
G1 X148.324 Y56.081 E4.18137
G1 X149.033 Y56.429 E4.23128
G1 X149.704 Y56.847 E4.28124
G1 X150.328 Y57.33 E4.33111
G1 X150.901 Y57.873 E4.381
G1 X151.416 Y58.472 E4.43092
G1 X151.867 Y59.12 E4.48081
G1 X152.251 Y59.811 E4.53076
G1 X152.563 Y60.536 E4.58064
G1 X152.8 Y61.289 E4.63053
G1 X152.959 Y62.063 E4.68046
G1 X153.04 Y62.848 E4.73033
G1 X153.05 Y63.25 E4.75575
G1 X153.05 Y171.75 E11.61232
G1 X153.01 Y172.539 E11.66225
G1 X152.891 Y173.319 E11.71211
G1 X152.693 Y174.084 E11.76205
G1 X152.419 Y174.824 E11.81191
G1 X152.071 Y175.533 E11.86182
G1 X151.653 Y176.204 E11.91178
G1 X151.17 Y176.828 E11.96165
G1 X150.627 Y177.401 E12.01153
G1 X150.028 Y177.916 E12.06145
G1 X149.38 Y178.367 E12.11135
G1 X148.689 Y178.751 E12.1613
G1 X147.964 Y179.063 E12.21118
G1 X147.211 Y179.3 E12.26107
G1 X146.437 Y179.459 E12.311
G1 X145.652 Y179.54 E12.36087
G1 X145.25 Y179.55 E12.38628
G1 X89.75 Y179.55 E15.89356
G1 X88.961 Y179.51 E15.94349
G1 X88.181 Y179.391 E15.99335
G1 X87.416 Y179.193 E16.04329
G1 X86.676 Y178.919 E16.09315
G1 X85.967 Y178.571 E16.14306
G1 X85.296 Y178.153 E16.19302
G1 X84.672 Y177.67 E16.24289
G1 X84.099 Y177.127 E16.29278
G1 X83.584 Y176.528 E16.3427
G1 X83.133 Y175.88 E16.39259
G1 X82.749 Y175.189 E16.44254
G1 X82.437 Y174.464 E16.49242
G1 X82.2 Y173.711 E16.54231
G1 X82.041 Y172.937 E16.59224
G1 X81.96 Y172.152 E16.64211
G1 X81.95 Y171.75 E16.66753
G1 X81.95 Y63.25 E23.5241
G1 X81.99 Y62.461 E23.57403
G1 X82.109 Y61.681 E23.62389
G1 X82.307 Y60.916 E23.67383
G1 X82.581 Y60.176 E23.72369
G1 X82.929 Y59.467 E23.7736
G1 X83.125 Y59.152 E23.79705
G0 F1080 X83.347 Y58.796
G0 F6000 X83.744 Y58.927
G1 F1200 X84.225 Y58.327 E23.84564
G1 X84.766 Y57.78 E23.89426
G1 X85.361 Y57.292 E23.94289
G1 X86.003 Y56.869 E23.99148
G1 X86.686 Y56.514 E24.04012
G1 X87.401 Y56.233 E24.08867
G1 X88.143 Y56.027 E24.13733
G1 X88.901 Y55.899 E24.18591
G1 X89.75 Y55.85 E24.23965
G1 X145.25 Y55.85 E27.74693
G1 X146.018 Y55.89 E27.79553
G1 X146.778 Y56.009 E27.84415
G1 X147.521 Y56.207 E27.89274
G1 X148.24 Y56.481 E27.94136
G1 X148.926 Y56.828 E27.98994
G1 X149.573 Y57.244 E28.03855
G1 X150.173 Y57.725 E28.08715
G1 X150.72 Y58.266 E28.13577
G1 X151.208 Y58.861 E28.1844
G1 X151.631 Y59.503 E28.23298
G1 X151.986 Y60.186 E28.28163
G1 X152.267 Y60.901 E28.33017
G1 X152.473 Y61.643 E28.37884
G1 X152.601 Y62.401 E28.42742
G1 X152.65 Y63.25 E28.48116
G1 X152.65 Y171.75 E35.33774
G1 X152.61 Y172.518 E35.38633
G1 X152.491 Y173.278 E35.43495
G1 X152.293 Y174.021 E35.48354
G1 X152.019 Y174.74 E35.53216
G1 X151.672 Y175.426 E35.58075
G1 X151.256 Y176.073 E35.62935
G1 X150.775 Y176.673 E35.67795
G1 X150.234 Y177.22 E35.72657
G1 X149.639 Y177.708 E35.7752
G1 X148.997 Y178.131 E35.82378
G1 X148.314 Y178.486 E35.87243
G1 X147.599 Y178.767 E35.92098
G1 X146.857 Y178.973 E35.96964
G1 X146.099 Y179.101 E36.01822
G1 X145.25 Y179.15 E36.07196
G1 X89.75 Y179.15 E39.57924
G1 X88.982 Y179.11 E39.62784
G1 X88.222 Y178.991 E39.67645
G1 X87.479 Y178.793 E39.72504
G1 X86.76 Y178.519 E39.77367
G1 X86.074 Y178.172 E39.82225
G1 X85.427 Y177.756 E39.87086
G1 X84.827 Y177.275 E39.91946
G1 X84.28 Y176.734 E39.96807
G1 X83.792 Y176.139 E40.0167
G1 X83.369 Y175.497 E40.06529
G1 X83.014 Y174.814 E40.11393
G1 X82.733 Y174.099 E40.16248
G1 X82.527 Y173.357 E40.21114
G1 X82.399 Y172.599 E40.25972
G1 X82.35 Y171.75 E40.31347
G1 X82.35 Y63.25 E47.17004
G1 X82.39 Y62.482 E47.21864
G1 X82.509 Y61.722 E47.26725
G1 X82.707 Y60.979 E47.31585
G1 X82.981 Y60.26 E47.36447
G1 X83.328 Y59.574 E47.41305
G1 X83.517 Y59.28 E47.43514
G0 F1080 X83.744 Y58.927
G0 F6000 X84.142 Y59.061
G1 F1200 X84.621 Y58.487 E47.48238
G1 X85.158 Y57.966 E47.52967
G1 X85.748 Y57.507 E47.5769
G1 X86.384 Y57.112 E47.62422
G1 X87.058 Y56.788 E47.67148
G1 X87.763 Y56.538 E47.71875
G1 X88.491 Y56.364 E47.76605
G1 X89.233 Y56.269 E47.81332
G1 X89.75 Y56.25 E47.84601
G1 X145.25 Y56.25 E51.35329
G1 X145.997 Y56.29 E51.40057
G1 X146.735 Y56.409 E51.44781
G1 X147.457 Y56.607 E51.49512
G1 X148.153 Y56.88 E51.54236
G1 X148.816 Y57.227 E51.58965
G1 X149.439 Y57.642 E51.63696
G1 X150.013 Y58.121 E51.6842
G1 X150.534 Y58.658 E51.73149
G1 X150.993 Y59.248 E51.77872
G1 X151.388 Y59.884 E51.82604
G1 X151.712 Y60.558 E51.87329
G1 X151.962 Y61.263 E51.92057
G1 X152.136 Y61.991 E51.96787
G1 X152.231 Y62.733 E52.01514
G1 X152.25 Y63.25 E52.04783
G1 X152.25 Y171.75 E58.90441
G1 X152.21 Y172.497 E58.95168
G1 X152.091 Y173.235 E58.99892
G1 X151.893 Y173.957 E59.04623
G1 X151.62 Y174.653 E59.09348
G1 X151.273 Y175.316 E59.14077
G1 X150.858 Y175.939 E59.18807
G1 X150.379 Y176.513 E59.23532
G1 X149.842 Y177.034 E59.2826
G1 X149.252 Y177.493 E59.32984
G1 X148.616 Y177.888 E59.37715
G1 X147.942 Y178.212 E59.42441
G1 X147.237 Y178.462 E59.47168
G1 X146.509 Y178.636 E59.51898
G1 X145.767 Y178.731 E59.56625
G1 X145.25 Y178.75 E59.59895
G1 X89.75 Y178.75 E63.10623
G1 X89.003 Y178.71 E63.1535
G1 X88.265 Y178.591 E63.20074
G1 X87.543 Y178.393 E63.24805
G1 X86.847 Y178.12 E63.2953
G1 X86.184 Y177.773 E63.34259
G1 X85.561 Y177.358 E63.38989
G1 X84.987 Y176.879 E63.43714
G1 X84.466 Y176.342 E63.48442
G1 X84.007 Y175.752 E63.53166
G1 X83.612 Y175.116 E63.57897
G1 X83.288 Y174.442 E63.62623
G1 X83.038 Y173.737 E63.6735
G1 X82.864 Y173.009 E63.7208
G1 X82.769 Y172.267 E63.76807
G1 X82.75 Y171.75 E63.80077
G1 X82.75 Y63.25 E70.65735
G1 X82.79 Y62.503 E70.70462
G1 X82.909 Y61.765 E70.75186
G1 X83.107 Y61.043 E70.79917
G1 X83.38 Y60.347 E70.84642
G1 X83.727 Y59.684 E70.8937
G1 X83.909 Y59.41 E70.91449
G0 F1080 X84.142 Y59.061
G0 F6000 X84.539 Y59.2
G1 F1200 X85.015 Y58.652 E70.96036
G1 X85.549 Y58.159 E71.00629
G1 X86.134 Y57.729 E71.05217
G1 X86.763 Y57.365 E71.0981
G1 X87.428 Y57.072 E71.14402
G1 X88.121 Y56.854 E71.18993
G1 X88.833 Y56.714 E71.23578
G1 X89.75 Y56.65 E71.29387
G1 X145.25 Y56.65 E74.80116
G1 X145.975 Y56.69 E74.84704
G1 X146.692 Y56.809 E74.89297
G1 X147.391 Y57.007 E74.93888
G1 X148.064 Y57.28 E74.98478
G1 X148.703 Y57.625 E75.03067
G1 X149.3 Y58.039 E75.07658
G1 X149.848 Y58.515 E75.12245
G1 X150.341 Y59.049 E75.16838
G1 X150.771 Y59.634 E75.21426
G1 X151.135 Y60.263 E75.26018
G1 X151.428 Y60.928 E75.30611
G1 X151.646 Y61.621 E75.35202
G1 X151.786 Y62.333 E75.39787
G1 X151.85 Y63.25 E75.45596
G1 X151.85 Y171.75 E82.31254
G1 X151.81 Y172.475 E82.35842
G1 X151.691 Y173.192 E82.40435
G1 X151.493 Y173.891 E82.45027
G1 X151.22 Y174.564 E82.49616
G1 X150.875 Y175.203 E82.54205
G1 X150.461 Y175.8 E82.58796
G1 X149.985 Y176.348 E82.63383
G1 X149.451 Y176.841 E82.67976
G1 X148.866 Y177.271 E82.72564
G1 X148.237 Y177.635 E82.77157
G1 X147.572 Y177.928 E82.81749
G1 X146.879 Y178.146 E82.8634
G1 X146.167 Y178.286 E82.90925
G1 X145.25 Y178.35 E82.96734
G1 X89.75 Y178.35 E86.47463
G1 X89.025 Y178.31 E86.52051
G1 X88.308 Y178.191 E86.56644
G1 X87.609 Y177.993 E86.61235
G1 X86.936 Y177.72 E86.65825
G1 X86.297 Y177.375 E86.70414
G1 X85.7 Y176.961 E86.75005
G1 X85.152 Y176.485 E86.79592
G1 X84.659 Y175.951 E86.84185
G1 X84.229 Y175.366 E86.88773
G1 X83.865 Y174.737 E86.93365
G1 X83.572 Y174.072 E86.97958
G1 X83.354 Y173.379 E87.02549
G1 X83.214 Y172.667 E87.07134
G1 X83.15 Y171.75 E87.12943
G1 X83.15 Y63.25 E93.98601
G1 X83.19 Y62.525 E94.03189
G1 X83.309 Y61.808 E94.07782
G1 X83.507 Y61.109 E94.12374
G1 X83.78 Y60.436 E94.16963
G1 X84.125 Y59.797 E94.21552
G1 X84.3 Y59.545 E94.23491
G0 F1080 X84.539 Y59.2
G0 F6000 X84.524 Y59.915
G1 F1200 X84.935 Y59.344 E94.27937
G1 X85.409 Y58.823 E94.32388
G1 X85.939 Y58.359 E94.3684
G1 X86.518 Y57.959 E94.41287
G1 X87.139 Y57.627 E94.45737
G1 X87.793 Y57.367 E94.50184
G1 X88.473 Y57.183 E94.54636
G1 X89.169 Y57.077 E94.59085
G1 X89.75 Y57.05 E94.62761
G1 X145.25 Y57.05 E98.13489
G1 X145.953 Y57.09 E98.17938
G1 X146.647 Y57.209 E98.22388
G1 X147.322 Y57.407 E98.26834
G1 X147.971 Y57.679 E98.3128
G1 X148.585 Y58.024 E98.35731
G1 X149.156 Y58.435 E98.40177
G1 X149.677 Y58.909 E98.44628
G1 X150.141 Y59.439 E98.4908
G1 X150.541 Y60.018 E98.53527
G1 X150.873 Y60.639 E98.57977
G1 X151.133 Y61.293 E98.62424
G1 X151.317 Y61.973 E98.66876
G1 X151.423 Y62.669 E98.71325
G1 X151.45 Y63.25 E98.75001
G1 X151.45 Y171.75 E105.60658
G1 X151.41 Y172.453 E105.65108
G1 X151.291 Y173.147 E105.69558
G1 X151.093 Y173.822 E105.74003
G1 X150.821 Y174.471 E105.7845
G1 X150.476 Y175.085 E105.82901
G1 X150.065 Y175.656 E105.87347
G1 X149.591 Y176.177 E105.91798
G1 X149.061 Y176.641 E105.96249
G1 X148.482 Y177.041 E106.00697
G1 X147.861 Y177.373 E106.05147
G1 X147.207 Y177.633 E106.09594
G1 X146.527 Y177.817 E106.14046
G1 X145.831 Y177.923 E106.18495
G1 X145.25 Y177.95 E106.2217
G1 X89.75 Y177.95 E109.72899
G1 X89.047 Y177.91 E109.77348
G1 X88.353 Y177.791 E109.81798
G1 X87.678 Y177.593 E109.86243
G1 X87.029 Y177.321 E109.9069
G1 X86.415 Y176.976 E109.95141
G1 X85.844 Y176.565 E109.99587
G1 X85.323 Y176.091 E110.04038
G1 X84.859 Y175.561 E110.08489
G1 X84.459 Y174.982 E110.12937
G1 X84.127 Y174.361 E110.17387
G1 X83.867 Y173.707 E110.21834
G1 X83.683 Y173.027 E110.26286
G1 X83.577 Y172.331 E110.30735
G1 X83.55 Y171.75 E110.34411
G1 X83.55 Y63.25 E117.20068
G1 X83.59 Y62.547 E117.24518
G1 X83.709 Y61.853 E117.28968
G1 X83.907 Y61.178 E117.33413
G1 X84.179 Y60.529 E117.3786
G1 X84.319 Y60.281 E117.3966
G0 F1080 X84.524 Y59.915
G0 F6000 X84.922 Y60.036
G1 F1200 X85.332 Y59.492 E117.43964
G1 X85.803 Y59.001 E117.48264
G1 X86.328 Y58.567 E117.52569
G1 X86.9 Y58.198 E117.5687
G1 X87.512 Y57.899 E117.61175
G1 X88.154 Y57.674 E117.65474
G1 X88.819 Y57.525 E117.6978
G1 X89.75 Y57.45 E117.75683
G1 X145.25 Y57.45 E121.26411
G1 X145.93 Y57.49 E121.30715
G1 X146.6 Y57.609 E121.35016
G1 X147.252 Y57.806 E121.3932
G1 X147.876 Y58.078 E121.43622
G1 X148.464 Y58.422 E121.47927
G1 X149.008 Y58.832 E121.52231
G1 X149.499 Y59.303 E121.56531
G1 X149.933 Y59.828 E121.60836
G1 X150.302 Y60.4 E121.65137
G1 X150.601 Y61.012 E121.69442
G1 X150.826 Y61.654 E121.73741
G1 X150.975 Y62.319 E121.78047
G1 X151.05 Y63.25 E121.8395
G1 X151.05 Y171.75 E128.69607
G1 X151.01 Y172.43 E128.73912
G1 X150.891 Y173.1 E128.78212
G1 X150.694 Y173.752 E128.82517
G1 X150.422 Y174.376 E128.86818
G1 X150.078 Y174.964 E128.91123
G1 X149.668 Y175.508 E128.95428
G1 X149.197 Y175.999 E128.99728
G1 X148.672 Y176.433 E129.04032
G1 X148.1 Y176.802 E129.08334
G1 X147.488 Y177.101 E129.12638
G1 X146.846 Y177.326 E129.16937
G1 X146.181 Y177.475 E129.21244
G1 X145.25 Y177.55 E129.27146
G1 X89.75 Y177.55 E132.77874
G1 X89.07 Y177.51 E132.82179
G1 X88.4 Y177.391 E132.86479
G1 X87.748 Y177.194 E132.90784
G1 X87.124 Y176.922 E132.95085
G1 X86.536 Y176.578 E132.9939
G1 X85.992 Y176.168 E133.03695
G1 X85.501 Y175.697 E133.07995
G1 X85.067 Y175.172 E133.12299
G1 X84.698 Y174.6 E133.16601
G1 X84.399 Y173.988 E133.20905
G1 X84.174 Y173.346 E133.25204
G1 X84.025 Y172.681 E133.29511
G1 X83.95 Y171.75 E133.35413
G1 X83.95 Y63.25 E140.21071
G1 X83.99 Y62.57 E140.25376
G1 X84.109 Y61.9 E140.29676
G1 X84.306 Y61.248 E140.3398
G1 X84.578 Y60.624 E140.38282
G1 X84.71 Y60.398 E140.39936
G0 F1080 X84.922 Y60.036
G0 F6000 X85.32 Y60.162
G1 F1200 X85.728 Y59.647 E140.44088
G1 X86.195 Y59.185 E140.48239
G1 X86.715 Y58.784 E140.52389
G1 X87.279 Y58.448 E140.56537
G1 X87.881 Y58.184 E140.60691
G1 X88.51 Y57.994 E140.64844
G1 X89.157 Y57.883 E140.68992
G1 X89.75 Y57.85 E140.72745
G1 X145.25 Y57.85 E144.23474
G1 X145.906 Y57.89 E144.27627
G1 X146.552 Y58.009 E144.31778
G1 X147.179 Y58.206 E144.35931
G1 X147.777 Y58.478 E144.40083
G1 X148.338 Y58.82 E144.44235
G1 X148.853 Y59.228 E144.48387
G1 X149.315 Y59.695 E144.52538
G1 X149.716 Y60.215 E144.56688
G1 X150.052 Y60.779 E144.60836
G1 X150.316 Y61.381 E144.6499
G1 X150.506 Y62.01 E144.69143
G1 X150.617 Y62.657 E144.73291
G1 X150.65 Y63.25 E144.77044
G1 X150.65 Y171.75 E151.62702
G1 X150.61 Y172.406 E151.66855
G1 X150.491 Y173.052 E151.71006
G1 X150.294 Y173.679 E151.7516
G1 X150.022 Y174.277 E151.79311
G1 X149.68 Y174.838 E151.83463
G1 X149.272 Y175.353 E151.87615
G1 X148.805 Y175.815 E151.91767
G1 X148.285 Y176.216 E151.95916
G1 X147.721 Y176.552 E152.00065
G1 X147.119 Y176.816 E152.04219
G1 X146.49 Y177.006 E152.08371
G1 X145.843 Y177.117 E152.1252
G1 X145.25 Y177.15 E152.16273
G1 X89.75 Y177.15 E155.67001
G1 X89.094 Y177.11 E155.71154
G1 X88.448 Y176.991 E155.75305
G1 X87.821 Y176.794 E155.79459
G1 X87.223 Y176.522 E155.8361
G1 X86.662 Y176.18 E155.87762
G1 X86.147 Y175.772 E155.91914
G1 X85.685 Y175.305 E155.96066
G1 X85.284 Y174.785 E156.00215
G1 X84.948 Y174.221 E156.04364
G1 X84.684 Y173.619 E156.08518
G1 X84.494 Y172.99 E156.1267
G1 X84.383 Y172.343 E156.16819
G1 X84.35 Y171.75 E156.20572
G1 X84.35 Y63.25 E163.0623
G1 X84.39 Y62.594 E163.10383
G1 X84.509 Y61.948 E163.14534
G1 X84.706 Y61.321 E163.18687
G1 X84.978 Y60.723 E163.22839
G1 X85.102 Y60.52 E163.24342
G0 F1080 X85.32 Y60.162
G0 F6000 X85.717 Y60.294
G1 F1200 X86.123 Y59.809 E163.28339
G1 X86.586 Y59.379 E163.32332
G1 X87.1 Y59.01 E163.36331
G1 X87.656 Y58.71 E163.40323
G1 X88.245 Y58.482 E163.44314
G1 X88.859 Y58.33 E163.48312
G1 X89.75 Y58.25 E163.53965
G1 X145.25 Y58.25 E167.04693
G1 X145.881 Y58.29 E167.08689
G1 X146.502 Y58.409 E167.12684
G1 X147.102 Y58.606 E167.16675
G1 X147.674 Y58.877 E167.20675
G1 X148.206 Y59.217 E167.24665
G1 X148.691 Y59.623 E167.28662
G1 X149.121 Y60.086 E167.32655
G1 X149.49 Y60.6 E167.36654
G1 X149.79 Y61.156 E167.40646
G1 X150.018 Y61.745 E167.44637
G1 X150.17 Y62.359 E167.48635
G1 X150.25 Y63.25 E167.54288
G1 X150.25 Y171.75 E174.39946
G1 X150.21 Y172.381 E174.43941
G1 X150.091 Y173.002 E174.47937
G1 X149.894 Y173.602 E174.51928
G1 X149.623 Y174.174 E174.55928
G1 X149.283 Y174.706 E174.59917
G1 X148.877 Y175.191 E174.63914
G1 X148.414 Y175.621 E174.67908
G1 X147.9 Y175.99 E174.71906
G1 X147.344 Y176.29 E174.75899
G1 X146.755 Y176.518 E174.7989
G1 X146.141 Y176.67 E174.83887
G1 X145.25 Y176.75 E174.8954
G1 X89.75 Y176.75 E178.40268
G1 X89.119 Y176.71 E178.44264
G1 X88.498 Y176.591 E178.4826
G1 X87.898 Y176.394 E178.52251
G1 X87.326 Y176.123 E178.5625
G1 X86.794 Y175.783 E178.6024
G1 X86.309 Y175.377 E178.64237
G1 X85.879 Y174.914 E178.6823
G1 X85.51 Y174.4 E178.72229
G1 X85.21 Y173.844 E178.76221
G1 X84.982 Y173.255 E178.80213
G1 X84.83 Y172.641 E178.8421
G1 X84.75 Y171.75 E178.89863
G1 X84.75 Y63.25 E185.75521
G1 X84.79 Y62.619 E185.79517
G1 X84.909 Y61.998 E185.83512
G1 X85.106 Y61.398 E185.87503
G1 X85.377 Y60.826 E185.91503
G1 X85.491 Y60.648 E185.92839
G0 F1080 X85.717 Y60.294
G0 F6000 X86.115 Y60.431
G1 F1200 X86.517 Y59.978 E185.96666
G1 X86.975 Y59.581 E186.00496
G1 X87.482 Y59.248 E186.0433
G1 X88.028 Y58.984 E186.08162
